!!!OTL: Sheli meiyou xiaonangua
!!!ARE: Asia, China,ÿJiangsu Jurong
!! III, 445
!!!SCT: C1790
!!!YEM: Copyright 1995, estate of Helmut Schaffrath.
**kern
*ICvox
*Ivox
*M2/4
*k[]
*C:
{8cc
16cc
16cc
8dd
8ee
=1
16ee
16dd
8cc
4cc}
=2
{8cc
16cc
16dd
8ee
8dd
=3
8ee
16ee
16dd
8cc
16a
16cc
=4
4dd
8ee
16ff
16ee
=5
4dd
8cc
8dd
=6
8cc
8b
4cc}
=7
{8ee
16ee
16dd
8cc
16a
16cc
=8
4dd
8ee
16ff
16ee
=9
4dd}
{8cc
8dd
=10
8cc
8b
[4cc
=11
4cc]
4r}
==
!!!AGN: Shange
!!!AMT: simple duple
!!!AIN: vox
!!!EED: Helmut Schaffrath
!!!EEV: 1.0
*-
!!!ONB: Tied note syntax fixed by Craig Sapp, 2004/05/03/
